archdroid-icon-theme/Archdroid-Lime/actions/scalable/edit-clear-rtl.svg

<svg xmlns="http://www.w3.org/2000/svg" fill="#CDDC39" viewBox="0 0 48 48"><path d="m4 6h30c1.38 0 2.47.7 3.19 1.76l10.81 16.23-10.81 16.23c-.72 1.06-1.81 1.78-3.19 1.78h-30c-2.21 0-4-1.79-4-4v-28c0-2.21 1.79-4 4-4m6 25.17l2.83 2.83 7.17-7.17 7.17 7.17 2.83-2.83-7.17-7.17 7.17-7.17-2.83-2.83-7.17 7.17-7.17-7.17-2.83 2.83 7.17 7.17-7.17 7.17"/></svg>

<?xml version="1.0" encoding="UTF-8" standalone="no"?>
<svg
   xmlns:dc="http://purl.org/dc/elements/1.1/"
   xmlns:cc="http://creativecommons.org/ns#"
   xmlns:rdf="http://www.w3.org/1999/02/22-rdf-syntax-ns#"
   xmlns:svg="http://www.w3.org/2000/svg"
   xmlns="http://www.w3.org/2000/svg"
   xmlns:sodipodi="http://sodipodi.sourceforge.net/DTD/sodipodi-0.dtd"
   xmlns:inkscape="http://www.inkscape.org/namespaces/inkscape"
   fill="#CDDC39"
   width="48"
   height="48"
   viewBox="0 0 48 48"
   id="svg2"
   version="1.1"
   inkscape:version="0.91 r13725"
   sodipodi:docname="edit-clear-rtl.svg">
  <metadata
     id="metadata10">
    <rdf:RDF>
      <cc:Work
         rdf:about="">
        <dc:format>image/svg+xml</dc:format>
        <dc:type
           rdf:resource="http://purl.org/dc/dcmitype/StillImage" />
      </cc:Work>
    </rdf:RDF>
  </metadata>
  <defs
     id="defs8" />
  <sodipodi:namedview
     pagecolor="#ffffff"
     bordercolor="#666666"
     borderopacity="1"
     objecttolerance="10"
     gridtolerance="10"
     guidetolerance="10"
     inkscape:pageopacity="0"
     inkscape:pageshadow="2"
     inkscape:window-width="1366"
     inkscape:window-height="713"
     id="namedview6"
     showgrid="false"
     inkscape:zoom="10.73600260416667"
     inkscape:cx="24"
     inkscape:cy="23.99999999999999"
     inkscape:window-x="0"
     inkscape:window-y="30"
     inkscape:window-maximized="1"
     inkscape:current-layer="svg2" />
  <path
     d="m 4,6 30,0 c 1.38,0 2.47,0.700000000000001 3.19,1.76 L 48,23.99 37.19,40.22 C 36.47,41.28 35.38,42 34,42 L 4,42 C 1.789999999999999,42 0,40.21 0,38 L 0,10 C 0,7.79 1.789999999999999,6 4,6 Z M 10,31.17 12.83,34 20,26.83 27.17,34 30,31.17 22.83,24 30,16.83 27.17,14 20,21.17 12.83,14 10,16.83 17.17,24 10,31.17 Z"
     id="path4"
     inkscape:connector-curvature="0" />
</svg>
